img/list.svg

<svg width="43" height="37" viewBox="0 0 43 37" fill="none" xmlns="http://www.w3.org/2000/svg">
<path d="M31.3591 0.428131H0.859131V5.47086H31.3591V0.428131Z" fill="#4694DC"/>
<path d="M31.3591 10.5136H0.859131V15.5563H31.3591V10.5136Z" fill="#4694DC"/>
<path d="M0.859131 20.599H21.1925V25.6418H0.859131V20.599Z" fill="#4694DC"/>
<path fill-rule="evenodd" clip-rule="evenodd" d="M25.9658 20.2915C24.69 21.5525 23.9055 23.2208 23.751 25.0008C23.5966 26.7808 24.0822 28.5576 25.1219 30.0164C26.1616 31.4751 27.6883 32.5218 29.4315 32.9708C31.1746 33.4198 33.0217 33.2423 34.6456 32.4696L38.547 36.3374L42.1409 32.7722L38.2395 28.9019C39.0127 27.2917 39.1878 25.4623 38.7336 23.7365C38.2795 22.0107 37.2255 20.4996 35.7575 19.4698C34.2895 18.4399 32.502 17.9576 30.7105 18.108C28.9189 18.2583 27.2385 19.0316 25.9658 20.2915ZM29.5622 27.4244C29.7984 27.6585 30.0787 27.8441 30.3872 27.9708C30.6956 28.0974 31.0262 28.1625 31.3601 28.1624C31.6939 28.1623 32.0245 28.0969 32.3329 27.9701C32.6412 27.8432 32.9214 27.6574 33.1574 27.4231C33.3934 27.1889 33.5805 26.9108 33.7082 26.6048C33.8358 26.2988 33.9015 25.9708 33.9014 25.6396C33.9012 25.3085 33.8354 24.9805 33.7075 24.6746C33.5796 24.3687 33.3923 24.0908 33.1561 23.8567C32.6792 23.3839 32.0325 23.1184 31.3583 23.1186C30.684 23.1189 30.0375 23.3848 29.5609 23.8579C29.0844 24.331 28.8168 24.9726 28.817 25.6414C28.8172 26.3103 29.0853 26.9516 29.5622 27.4244Z" fill="#4694DC"/>
</svg>

<svg xmlns="http://www.w3.org/2000/svg" width="43" height="37" fill="none">
<path fill="#4694DC" d="M31.36.428H.86v5.043h30.5V.428ZM31.36 10.514H.86v5.042h30.5v-5.042ZM.86 20.599h20.332v5.043H.86v-5.043Z"/>
<path fill="#4694DC" fill-rule="evenodd" d="M25.966 20.291a7.52 7.52 0 0 0-.844 9.725 7.626 7.626 0 0 0 4.31 2.955 7.681 7.681 0 0 0 5.214-.501l3.901 3.867 3.594-3.565-3.901-3.87c.773-1.61.948-3.44.494-5.166a7.566 7.566 0 0 0-2.977-4.266 7.672 7.672 0 0 0-9.791.822Zm3.596 7.133a2.545 2.545 0 0 0 1.798.738 2.56 2.56 0 0 0 1.797-.739 2.52 2.52 0 0 0 .744-1.783 2.505 2.505 0 0 0-.745-1.783 2.553 2.553 0 0 0-3.595 0 2.512 2.512 0 0 0 .001 3.566Z" clip-rule="evenodd"/></svg>
